svg/u1f97d.svg

<svg viewBox="0 0 128 128" xmlns="http://www.w3.org/2000/svg">
  <g>
    <path d="M97.12,62.1H64.5H31.88c-9.89,0-17.9,8.2-17.9,18.32v4.67c0,7.18,6.58,23,22.65,23 c16.07,0,18.72-9.46,21.37-13.88c2.65-4.43,2.48-5.03,6.5-5.03s3.84,0.6,6.5,5.03c2.65,4.43,5.31,13.88,21.37,13.88 c16.07,0,22.65-15.82,22.65-23v-4.67C115.02,70.31,107,62.1,97.12,62.1z" opacity="0.76" fill="#94D1E0"/>
    <path d="M15.46,35.14c2.83-3.47,6.95-4.6,12.79-5.75 c12.08-2.37,25.04,2.1,37.32,1.86c6.92-0.13,13.47-3.12,20.08-5.33s16.41-1.47,27.45,6.36" fill="none" stroke="#37474F" stroke-width="8.734" stroke-miterlimit="10"/>
    <path d="M99.36,21.2c0,0,9.5,8.8,13.59,20.28c2.58,7.24,2.43,19.14,2.43,19.14s4.35,6.01,4.35,5.81 c0-0.2,5.48-17.56,0-31.7C115.46,23.7,99.36,21.2,99.36,21.2z" fill="#2F7889"/>
    <path d="M35.61,24.38c0,0-13.6,5.94-18.49,17.1c-4.69,10.69-6.03,21.88-6.03,21.88s-3.66,2.27-3.66,2.07 S1.95,49.88,9.12,36.51C16.68,22.4,35.61,24.38,35.61,24.38z" fill="#2F7889"/>
    <path d="M116.91,58.14c-3.02-8.29-12.17-13.82-20.9-12.53c-0.19,0.02-19.44,2.32-31.5,2.32 c-12.07,0-31.31-2.3-31.49-2.32c-8.8-1.28-17.81,4.17-20.94,12.52H7.99c-1.13,0-2.04,0.91-2.04,2.04v9.61 c0,1.13,0.91,2.04,2.04,2.04h3.12c0.55,4.51,2.87,10.52,2.87,10.52c-0.63,8.92,5.25,25.27,22.65,25.74 c16.07,0,18.72-9.46,21.37-13.88c2.65-4.43,2.48-5.03,6.5-5.03c4.02,0,3.84,0.6,6.5,5.03c2.65,4.43,5.31,13.88,21.37,13.88 c14.32,0,21.1-12.57,22.41-20.38c1.82-4.7,3.33-10.29,3.78-15.88h1.18c1.13,0,2.04-0.91,2.04-2.04v-9.61 c0-1.13-0.91-2.04-2.04-2.04H116.91z M110.54,87.48c-1.19,6.2-6.69,16.29-18.17,16.29c-11.52,0-14.23-5.17-16.62-9.73 c-0.6-1.19-1.31-2.37-1.94-3.44c-2.38-4.08-3.89-5.74-9.3-5.74c-5.41,0-6.92,1.66-9.3,5.74c-0.63,1.08-1.35,2.26-1.94,3.44 c-2.39,4.56-5.1,9.73-16.62,9.73c-11.48,0-16.98-10.09-18.17-16.29c-0.34-1.58-0.17-5.41-0.21-7.05c0-7.72,6.13-14,13.67-14H64.5 h32.58c7.54,0,13.67,6.28,13.67,14C110.75,80.43,111.17,84.75,110.54,87.48z" fill="#BDBDBD"/>
    <path d="M97.12,66.57c7.41,0,13.43,6.22,13.43,13.86v4.67c0,5.45-5.23,18.53-18.18,18.53 c-11.35,0-14.03-5.11-16.39-9.61c-0.39-0.74-0.75-1.43-1.15-2.1c-0.3-0.5-0.56-0.95-0.8-1.35c-2.43-4.16-3.97-5.85-9.53-5.85 c-5.56,0-7.11,1.69-9.53,5.85c-0.24,0.4-0.5,0.85-0.8,1.35c-0.4,0.66-0.76,1.36-1.15,2.1c-2.36,4.51-5.04,9.61-16.39,9.61 c-12.95,0-18.18-13.07-18.18-18.53v-4.67c0-7.64,6.02-13.86,13.43-13.86H64.5H97.12 M97.12,62.1H64.5H31.88 c-9.89,0-17.9,8.2-17.9,18.32v4.67c0,7.18,6.58,23,22.65,23c16.07,0,18.72-9.46,21.37-13.88c2.65-4.43,2.48-5.03,6.5-5.03 c4.02,0,3.84,0.6,6.5,5.03c2.65,4.43,5.31,13.88,21.37,13.88c16.07,0,22.65-15.82,22.65-23v-4.67 C115.02,70.31,107,62.1,97.12,62.1L97.12,62.1z" fill="#C9E3E6"/>
    <path d="M97.12,66.57c7.41,0,13.43,6.22,13.43,13.86v4.67c0,5.45-5.23,18.53-18.18,18.53 c-11.35,0-14.03-5.11-16.39-9.61c-0.39-0.74-0.75-1.43-1.15-2.1c-0.3-0.5-0.56-0.95-0.8-1.35c-2.43-4.16-3.97-5.85-9.53-5.85 c-5.56,0-7.11,1.69-9.53,5.85c-0.24,0.4-0.5,0.85-0.8,1.35c-0.4,0.66-0.76,1.36-1.15,2.1c-2.36,4.51-5.04,9.61-16.39,9.61 c-12.95,0-18.18-13.07-18.18-18.53v-4.67c0-7.64,6.02-13.86,13.43-13.86H64.5H97.12 M97.12,62.1H64.5H31.88 c-9.89,0-17.9,8.2-17.9,18.32v4.67c0,7.18,6.58,23,22.65,23c16.07,0,18.72-9.46,21.37-13.88c2.65-4.43,2.48-5.03,6.5-5.03 c4.02,0,3.84,0.6,6.5,5.03c2.65,4.43,5.31,13.88,21.37,13.88c16.07,0,22.65-15.82,22.65-23v-4.67 C115.02,70.31,107,62.1,97.12,62.1L97.12,62.1z" fill="#C9E3E6"/>
    <path d="M22.82,61.4c2.64-1.49,6.01-2.07,8.28-2.07c1.29,0,1.15-1.33,0.78-2.45l-1.71-5.02 c-0.71-1.8-1.74-1.43-2.31-1.36c-3.38,0.42-5.09,1.52-6.33,2.43c-0.43,0.32-1.32,0.49-1.32,2.49c0,2,0.13,3.99,0.31,5.34 C20.69,62.1,21.37,62.22,22.82,61.4z" opacity="0.61" fill="#FFFFFF"/>
    <path d="M20.91,50.93 c0.17-0.21,0.38-0.36,0.6-0.51c1.66-1.13,3.59-1.87,5.58-2.14" opacity="0.56" fill="none" stroke="#FFFFFF" stroke-width="2" stroke-linecap="round" stroke-miterlimit="10"/>
    <path d="M114.87,81.24c0.58-2.84,0.76-5.73,0.82-8.59c0.01-1.44-0.03-2.87-0.13-4.3 c-0.04-0.7-0.12-1.44-0.18-2.13c-0.07-0.69-0.19-1.35-0.34-2.01c-1.22-5.25-4.9-9.85-9.66-11.92c-2.36-1.07-4.95-1.48-7.47-1.27 c-1.19,0.09-2.74,0.34-4.17,0.51l-4.35,0.54c-5.8,0.72-11.63,1.23-17.5,1.57c-2.93,0.15-5.9,0.29-8.88,0.22 c-2.97-0.06-5.91-0.21-8.84-0.41c-5.86-0.38-11.67-1.01-17.47-1.75l-4.35-0.57c-1.27-0.17-2.53-0.24-3.8-0.13 c-2.53,0.21-5.03,1.08-7.21,2.53c-4.41,2.86-7.37,7.95-7.78,13.37l-0.01-0.11c0.1,2.4,0.29,4.83,0.58,7.23 c0.15,1.2,0.33,2.4,0.53,3.58c0.23,1.18,0.47,2.38,1.02,3.43l-0.25,0.17c-0.67-1.07-1.01-2.27-1.34-3.44 c-0.32-1.18-0.57-2.38-0.79-3.59c-0.44-2.41-0.77-4.83-1.03-7.26l0-0.01l0-0.01c-0.01-5.9,3.06-11.64,7.85-15.06 c2.38-1.73,5.2-2.86,8.12-3.23c1.46-0.19,2.94-0.2,4.41-0.02l4.33,0.47c5.78,0.6,11.57,1.11,17.37,1.47 c5.8,0.36,11.6,0.47,17.4,0.16c5.8-0.29,11.59-0.76,17.38-1.33l4.34-0.45c1.45-0.14,2.88-0.36,4.35-0.43 c2.94-0.12,5.92,0.51,8.55,1.83c5.29,2.61,9.16,7.84,10.14,13.64c0.27,1.45,0.25,2.92,0.28,4.38c0.01,1.46-0.04,2.92-0.14,4.37 c-0.21,2.91-0.64,5.81-1.46,8.62L114.87,81.24z" fill="#757575"/>
    <path d="M118.53,61.4c0,0,5.47,1.31,5.47,1.72s-2.23,12.69-2.23,12.69s-3.28-1.39-3.25-2.68 S118.53,61.4,118.53,61.4z" fill="#37474F"/>
    <path d="M11.14,61.48l-2.8-0.51L4,67.29l4.27,9.05l3.54-0.97c0,0-0.67-5.62-0.74-8.35 C11.01,64.28,11.14,61.48,11.14,61.48z" fill="#37474F"/>
    <path d="M115.02,82.79v-4.67c0-0.78-0.06-1.55-0.16-2.31c-1.07,7.76-6.83,22.33-21.49,22.33 c-16.07,0-18.5-8.95-21.15-13.38c-2.65-4.43-3.7-5.33-7.72-5.33s-5.25,0.54-7.91,4.97c-2.65,4.43-5.13,13.94-21.2,13.94 c-6.63,0-11.47-4.6-15.66-9.84c-1.76-2.2-3.17-4.71-4.18-7.36c-0.4-1.05-0.66-3.6-1.47-4.89c-0.06,0.61-0.09,1.24-0.09,1.87v4.67 c0,7.18,6.58,23,22.65,23c16.07,0,17.54-9.49,20.19-13.92c2.65-4.43,3.66-5,7.68-5s4.83,0.57,7.49,5 c2.65,4.43,4.31,13.92,20.38,13.92C108.43,105.78,115.02,89.96,115.02,82.79z" fill="#455A64"/>
    <linearGradient id="SVGID_1_" gradientUnits="userSpaceOnUse" x1="64.4965" x2="64.4965" y1="91.1479" y2="54.0362">
      <stop offset="0" stop-color="#D6D6D6"/>
      <stop offset="1" stop-color="#FFFFFF"/>
    </linearGradient>
    <path d="M97.12,66.43c7.54,0,13.67,6.28,13.67,14v4.67c0,5.49-5.3,18.67-18.43,18.67 c-11.52,0-14.23-5.17-16.62-9.73c-0.39-0.74-1.71-3.04-1.94-3.44c-2.38-4.08-3.89-5.74-9.3-5.74c-5.41,0-6.92,1.66-9.3,5.74 c-0.24,0.4-1.56,2.71-1.94,3.44c-2.39,4.56-5.1,9.73-16.62,9.73c-13.12,0-18.43-13.18-18.43-18.67v-4.67c0-7.72,6.13-14,13.67-14 H64.5H97.12 M98.11,61.4H64.5H30.88c-10.19,0-18.45,8.45-18.45,18.88v4.81c0,7.4,6.79,23.7,23.34,23.7 c16.56,0,19.29-9.75,22.03-14.31c2.73-4.56,2.55-5.18,6.69-5.18c4.14,0,3.96,0.62,6.69,5.18c2.73,4.56,5.47,14.31,22.03,14.31 c16.56,0,23.34-16.3,23.34-23.7v-4.81C116.56,69.86,108.3,61.4,98.11,61.4L98.11,61.4z" fill="url(#SVGID_1_)"/>
  </g>
</svg>

<svg viewBox="0 0 128 128" xmlns="http://www.w3.org/2000/svg">
  <defs>
    <linearGradient id="SVGID_1_" gradientUnits="userSpaceOnUse" x1="64.4965" x2="64.4965" y1="91.1479" y2="54.0362">
      <stop offset="0" stop-color="#D6D6D6"/>
      <stop offset="1" stop-color="#FFFFFF"/>
    </linearGradient>
  </defs>
  <path d="M97.12,62.1 L64.5,62.1 L31.88,62.1 C21.99,62.1 13.98,70.3 13.98,80.42 L13.98,85.09 C13.98,92.27 20.56,108.09 36.63,108.09 C52.7,108.09 55.35,98.63 58,94.21 C60.65,89.78 60.48,89.18 64.5,89.18 C68.52,89.18 68.34,89.78 71,94.21 C73.65,98.64 76.31,108.09 92.37,108.09 C108.44,108.09 115.02,92.27 115.02,85.09 L115.02,80.42 C115.02,70.31 107,62.1 97.12,62.1 Z" fill="#94D1E0" opacity="0.76"/>
  <path d="M12.076,32.38 Q16.211,27.31 27.406,25.105 Q35.275,23.561 50.911,25.651 Q60.817,26.975 65.485,26.884 Q70.227,26.795 79.986,23.282 Q82.822,22.261 84.265,21.778 Q98.929,16.876 115.626,28.718 L110.574,35.842 Q97.493,26.565 87.035,30.062 Q85.686,30.513 82.944,31.5 Q71.83,35.5 65.655,35.616 Q60.321,35.72 49.754,34.308 Q35.545,32.409 29.094,33.675 Q20.989,35.271 18.844,37.9 Z" fill="#37474F"/>
  <path d="M99.36,21.2 C99.36,21.2 108.86,30 112.95,41.48 C115.53,48.72 115.38,60.62 115.38,60.62 C115.38,60.62 119.73,66.63 119.73,66.43 C119.73,66.23 125.21,48.87 119.73,34.73 C115.46,23.7 99.36,21.2 99.36,21.2 Z" fill="#2F7889"/>
  <path d="M35.61,24.38 C35.61,24.38 22.01,30.32 17.12,41.48 C12.43,52.17 11.09,63.36 11.09,63.36 C11.09,63.36 7.43,65.63 7.43,65.43 C7.43,65.23 1.95,49.88 9.12,36.51 C16.68,22.4 35.61,24.38 35.61,24.38 Z" fill="#2F7889"/>
  <path d="M116.91,58.14 C113.89,49.85 104.74,44.32 96.01,45.61 C95.82,45.63 76.57,47.93 64.51,47.93 C52.44,47.93 33.2,45.63 33.02,45.61 C24.22,44.33 15.21,49.78 12.08,58.13 L7.99,58.13 C6.86,58.13 5.95,59.04 5.95,60.17 L5.95,69.78 C5.95,70.91 6.86,71.82 7.99,71.82 L11.11,71.82 C11.66,76.33 13.98,82.34 13.98,82.34 C13.35,91.26 19.23,107.61 36.63,108.08 C52.7,108.08 55.35,98.62 58,94.2 C60.65,89.77 60.48,89.17 64.5,89.17 C68.52,89.17 68.34,89.77 71,94.2 C73.65,98.63 76.31,108.08 92.37,108.08 C106.69,108.08 113.47,95.51 114.78,87.7 C116.6,83 118.11,77.41 118.56,71.82 L119.74,71.82 C120.87,71.82 121.78,70.91 121.78,69.78 L121.78,60.17 C121.78,59.04 120.87,58.13 119.74,58.13 L116.91,58.13 Z M110.54,87.48 C109.35,93.68 103.85,103.77 92.37,103.77 C80.85,103.77 78.14,98.6 75.75,94.04 C75.15,92.85 74.44,91.67 73.81,90.6 C71.43,86.52 69.92,84.86 64.51,84.86 C59.1,84.86 57.59,86.52 55.21,90.6 C54.58,91.68 53.86,92.86 53.27,94.04 C50.88,98.6 48.17,103.77 36.65,103.77 C25.17,103.77 19.67,93.68 18.48,87.48 C18.14,85.9 18.31,82.07 18.27,80.43 C18.27,72.71 24.4,66.43 31.94,66.43 L64.5,66.43 L97.08,66.43 C104.62,66.43 110.75,72.71 110.75,80.43 C110.75,80.43 111.17,84.75 110.54,87.48 Z" fill="#BDBDBD"/>
  <path d="M97.12,66.57 C104.53,66.57 110.55,72.79 110.55,80.43 L110.55,85.1 C110.55,90.55 105.32,103.63 92.37,103.63 C81.02,103.63 78.34,98.52 75.98,94.02 C75.59,93.28 75.23,92.59 74.83,91.92 C74.53,91.42 74.27,90.97 74.03,90.57 C71.6,86.41 70.06,84.72 64.5,84.72 C58.94,84.72 57.39,86.41 54.97,90.57 C54.73,90.97 54.47,91.42 54.17,91.92 C53.77,92.58 53.41,93.28 53.02,94.02 C50.66,98.53 47.98,103.63 36.63,103.63 C23.68,103.63 18.45,90.56 18.45,85.1 L18.45,80.43 C18.45,72.79 24.47,66.57 31.88,66.57 L64.5,66.57 L97.12,66.57 M97.12,62.1 L64.5,62.1 L31.88,62.1 C21.99,62.1 13.98,70.3 13.98,80.42 L13.98,85.09 C13.98,92.27 20.56,108.09 36.63,108.09 C52.7,108.09 55.35,98.63 58,94.21 C60.65,89.78 60.48,89.18 64.5,89.18 C68.52,89.18 68.34,89.78 71,94.21 C73.65,98.64 76.31,108.09 92.37,108.09 C108.44,108.09 115.02,92.27 115.02,85.09 L115.02,80.42 C115.02,70.31 107,62.1 97.12,62.1 L97.12,62.1 Z" fill="#C9E3E6"/>
  <path d="M97.12,66.57 C104.53,66.57 110.55,72.79 110.55,80.43 L110.55,85.1 C110.55,90.55 105.32,103.63 92.37,103.63 C81.02,103.63 78.34,98.52 75.98,94.02 C75.59,93.28 75.23,92.59 74.83,91.92 C74.53,91.42 74.27,90.97 74.03,90.57 C71.6,86.41 70.06,84.72 64.5,84.72 C58.94,84.72 57.39,86.41 54.97,90.57 C54.73,90.97 54.47,91.42 54.17,91.92 C53.77,92.58 53.41,93.28 53.02,94.02 C50.66,98.53 47.98,103.63 36.63,103.63 C23.68,103.63 18.45,90.56 18.45,85.1 L18.45,80.43 C18.45,72.79 24.47,66.57 31.88,66.57 L64.5,66.57 L97.12,66.57 M97.12,62.1 L64.5,62.1 L31.88,62.1 C21.99,62.1 13.98,70.3 13.98,80.42 L13.98,85.09 C13.98,92.27 20.56,108.09 36.63,108.09 C52.7,108.09 55.35,98.63 58,94.21 C60.65,89.78 60.48,89.18 64.5,89.18 C68.52,89.18 68.34,89.78 71,94.21 C73.65,98.64 76.31,108.09 92.37,108.09 C108.44,108.09 115.02,92.27 115.02,85.09 L115.02,80.42 C115.02,70.31 107,62.1 97.12,62.1 L97.12,62.1 Z" fill="#C9E3E6"/>
  <path d="M22.82,61.4 C25.46,59.91 28.83,59.33 31.1,59.33 C32.39,59.33 32.25,58 31.88,56.88 L30.17,51.86 C29.46,50.06 28.43,50.43 27.86,50.5 C24.48,50.92 22.77,52.02 21.53,52.93 C21.1,53.25 20.21,53.42 20.21,55.42 C20.21,57.42 20.34,59.41 20.52,60.76 C20.69,62.1 21.37,62.22 22.82,61.4 Z" fill="#FFFFFF" opacity="0.61"/>
  <path d="M20.133,50.301 Q20.408,49.961 20.947,49.594 Q23.679,47.734 26.956,47.289 Q27.946,47.155 28.081,48.146 Q28.148,48.641 27.934,48.922 Q27.72,49.204 27.224,49.271 Q24.415,49.652 22.073,51.246 Q21.777,51.448 21.687,51.559 Q21.373,51.948 21.021,51.985 Q20.669,52.022 20.281,51.707 Q19.504,51.078 20.133,50.301 Z" fill="#FFFFFF" opacity="0.56"/>
  <path d="M114.87,81.24 C115.45,78.4 115.63,75.51 115.69,72.65 C115.7,71.21 115.66,69.78 115.56,68.35 C115.52,67.65 115.44,66.91 115.38,66.22 C115.31,65.53 115.19,64.87 115.04,64.21 C113.82,58.96 110.14,54.36 105.38,52.29 C103.02,51.22 100.43,50.81 97.91,51.02 C96.72,51.11 95.17,51.36 93.74,51.53 L89.39,52.07 C83.59,52.79 77.76,53.3 71.89,53.64 C68.96,53.79 65.99,53.93 63.01,53.86 C60.04,53.8 57.1,53.65 54.17,53.45 C48.31,53.07 42.5,52.44 36.7,51.7 L32.35,51.13 C31.08,50.96 29.82,50.89 28.55,51 C26.02,51.21 23.52,52.08 21.34,53.53 C16.93,56.39 13.97,61.48 13.56,66.9 L13.55,66.79 C13.65,69.19 13.84,71.62 14.13,74.02 C14.28,75.22 14.46,76.42 14.66,77.6 C14.89,78.78 15.13,79.98 15.68,81.03 L15.43,81.2 C14.76,80.13 14.42,78.93 14.09,77.76 C13.77,76.58 13.52,75.38 13.3,74.17 C12.86,71.76 12.53,69.34 12.27,66.91 L12.27,66.9 L12.27,66.89 C12.26,60.99 15.33,55.25 20.12,51.83 C22.5,50.1 25.32,48.97 28.24,48.6 C29.7,48.41 31.18,48.4 32.65,48.58 L36.98,49.05 C42.76,49.65 48.55,50.16 54.35,50.52 C60.15,50.88 65.95,50.99 71.75,50.68 C77.55,50.39 83.34,49.92 89.13,49.35 L93.47,48.9 C94.92,48.76 96.35,48.54 97.82,48.47 C100.76,48.35 103.74,48.98 106.37,50.3 C111.66,52.91 115.53,58.14 116.51,63.94 C116.78,65.39 116.76,66.86 116.79,68.32 C116.8,69.78 116.75,71.24 116.65,72.69 C116.44,75.6 116.01,78.5 115.19,81.31 L114.87,81.24 Z" fill="#757575"/>
  <path d="M118.53,61.4 C118.53,61.4 124,62.71 124,63.12 C124,63.53 121.77,75.81 121.77,75.81 C121.77,75.81 118.49,74.42 118.52,73.13 C118.55,71.84 118.53,61.4 118.53,61.4 Z" fill="#37474F"/>
  <path d="M11.14,61.48 L8.34,60.97 L4,67.29 L8.27,76.34 L11.81,75.37 C11.81,75.37 11.14,69.75 11.07,67.02 C11.01,64.28 11.14,61.48 11.14,61.48 Z" fill="#37474F"/>
  <path d="M115.02,82.79 L115.02,78.12 C115.02,77.34 114.96,76.57 114.86,75.81 C113.79,83.57 108.03,98.14 93.37,98.14 C77.3,98.14 74.87,89.19 72.22,84.76 C69.57,80.33 68.52,79.43 64.5,79.43 C60.48,79.43 59.25,79.97 56.59,84.4 C53.94,88.83 51.46,98.34 35.39,98.34 C28.76,98.34 23.92,93.74 19.73,88.5 C17.97,86.3 16.56,83.79 15.55,81.14 C15.15,80.09 14.89,77.54 14.08,76.25 C14.02,76.86 13.99,77.49 13.99,78.12 L13.99,82.79 C13.99,89.97 20.57,105.79 36.64,105.79 C52.71,105.79 54.18,96.3 56.83,91.87 C59.48,87.44 60.49,86.87 64.51,86.87 C68.53,86.87 69.34,87.44 72,91.87 C74.65,96.3 76.31,105.79 92.38,105.79 C108.43,105.78 115.02,89.96 115.02,82.79 Z" fill="#455A64"/>
  <path d="M97.12,66.43 C104.66,66.43 110.79,72.71 110.79,80.43 L110.79,85.1 C110.79,90.59 105.49,103.77 92.36,103.77 C80.84,103.77 78.13,98.6 75.74,94.04 C75.35,93.3 74.03,91 73.8,90.6 C71.42,86.52 69.91,84.86 64.5,84.86 C59.09,84.86 57.58,86.52 55.2,90.6 C54.96,91 53.64,93.31 53.26,94.04 C50.87,98.6 48.16,103.77 36.64,103.77 C23.52,103.77 18.21,90.59 18.21,85.1 L18.21,80.43 C18.21,72.71 24.34,66.43 31.88,66.43 L64.5,66.43 L97.12,66.43 M98.11,61.4 L64.5,61.4 L30.88,61.4 C20.69,61.4 12.43,69.85 12.43,80.28 L12.43,85.09 C12.43,92.49 19.22,108.79 35.77,108.79 C52.33,108.79 55.06,99.04 57.8,94.48 C60.53,89.92 60.35,89.3 64.49,89.3 C68.63,89.3 68.45,89.92 71.18,94.48 C73.91,99.04 76.65,108.79 93.21,108.79 C109.77,108.79 116.55,92.49 116.55,85.09 L116.55,80.28 C116.56,69.86 108.3,61.4 98.11,61.4 L98.11,61.4 Z" fill="url(#SVGID_1_)"/>
</svg>
